X:1
T:Schroeder, 76.76.76.76.77
T:Schroeder, 76.76.76.76.77
T:Hermann Rudolph Schroeder, 1887
T:Public Domain Courtesy of the Cyber Hymnal™
C:Hermann Rudolph Schroeder, 1887
Z:Public Domain
Z:Courtesy of the Cyber Hymnal™
%%score ( 1 2 ) ( 3 4 )
L:1/8
Q:1/4=112
M:4/4
K:G
V:1 treble 
V:2 treble 
V:3 bass 
V:4 bass 
V:1
|: [DG]2 | [EG]2 F2 [B,G]2 [A,D]2 | [DG]4 !fermata![DA]2 [DB]2 | [Ec]2 [DB]2 dc z x3 | %4
 !fermata![FA]6 [GB]2 | [GB]2 [EA]2 cB z x3 | [DG]4 !fermata![DF]2 [EA]2 | [DA]2 [DG]2 GF z x3 | %8
 !fermata!D6 :|[M:3/4] [B,G]4 [FA]2 | [EG]4 [Ec]2 | c2 B2 [EA]2 | [^DB]6 | [EB]4 [Ec]2 | %14
 [Fd]4 [EG]2 | [Ec]2 B2 z x3 | [B,G]6 |] %17
V:2
|: x2 | x2 DC x4 | x8 | x4 D3 (B2 G) | x8 | x4 E3 (A2 F) | x8 | x4 D3 (E2 ^C) | D6 :|[M:3/4] x6 | %10
 x6 | E4 x2 | x6 | x6 | x6 | x2 D3 (A2 C) | x6 |] %17
V:3
|: [G,B,]2 | (CB,) [D,A,]2 [G,,G,]2 [C,F,]2 | G,4 !fermata![D,F,]2 G,2 | %3
 [E,G,][F,A,] [G,B,]2 [F,A,]2 [G,D]2 x2 | !fermata![D,D]6 [G,D]2 | %5
 [E,E]2 [C,E]2 [A,,C][B,,B,] C2 x2 | C2 B,2 !fermata![D,A,]2 [^C,A,]2 | %7
 [D,F,]2 [B,,G,]2 G,3 z A, x | !fermata![D,F,]6 :|[M:3/4] (E,2 B,2) [^D,B,]2 | B,4 A,2 | %11
 [A,,A,]2 ([E,G,][D,F,]) [C,E,]2 | [B,,F,]6 | [E,G,]4 (A,G,) | [D,F,]4 [E,G,]2 | G,4 [D,,F,]2 x2 | %16
 [G,,G,]6 |] %17
V:4
|: x2 | C,2 x6 | (C,2 B,,G,,) G,2 x2 | x10 | x8 | x6 (C,D,) x2 | G,,4 x4 | x4 E,2 A,,2 x2 | x6 :| %9
[M:3/4] E,4 x2 | E,2 (D,2 C,B,,) | x6 | x6 | x4 A,,2 | x6 | C,2 D,2 x4 | x6 |] %17

